X: 20
T:Auld Swaara
S:Tom Anderson, Haand Me Doon Da Fiddle
M:2/4
L:1/8
Q:1/4=56
K:G
D| GG        (3D(B,G,)| (3D(GD)  ((3B,A,B,    |G,2) {c}((3BAF)|
   GG        (3D(B,G,)| (3D(GD)  (3(B,A,)B,   |DG         G  :|
A|(G/F/E/D/) (3(CEC)  |((3B,DB,)   (A,>B,)    |G,2  {c}((3BAF)|
  (G/F/E/D/) (3(CEC)  |((3B,DB,)   (A,>B,)    |DG         G  :|
D|(G/F/E/D/)    Gg    |   e(d/B/)   d/(e/f/g/)|a2   ({A}(3B)AF|
  (G/F/E/D/)    Gg    |   e(d/B/) (3d(gd)     |BG         G  :|

And another sea song about a dead lover, maybe English (this is
the way I hear it sung in Scotland):

